!!!OTL: Wiedersehen an der Bahre 'Nun adje, jetzt muss ich reiten fort,
!!!ARE: Europa, Mitteleuropa, Deutschland / France, Lothringen
!!!YOR: 3, S. 66
!!    1926 gedruckt in Heidelberg
!!!SCT: Q0056
!!!YEM: Copyright 1995, estate of Helmut Schaffrath.
**kern
*ICvox
*Ivox
*M4/4
*k[f#]
*G:
{8.d
16d
=1
4.b
8a
8cc
8b
8a
8g
=2
4.a
8g
4f#}
{8.d
16f#
=3
4a
8a
8d
4cc
8.b
16a
=4
4a
4g
4r}
{8g
8f#
=5
4e
4e
4g
8f#
8e
=6
8.d
16f#
8.f#
16a
4dd
8cc}
{8a
=7
4.g
8b
4dd
8cc
8a
=8
4a
4g
4r}
==
!!!AGN: Ballade, Abschied, Enttaeuschung, Tod, Selbstmord
!! Verzierung (Nachschlag) in der zweiten Zeile.
!!!ONB: ESAC (Essen Associative Code) Database: BALLADE
!!!AMT: simple quadruple
!!!AIN: vox
!!!EED: Helmut Schaffrath
!!!EEV: 1.0
*-
